X:0394
T:The Spinning Wheel.
M:6/8
L:1/8
Q:3/8=128
I: :| ::
Z:Jack Campin * www.campin.me.uk * 2009
K:E Minor
G/F/|E2e  edc    |BAG FED|E2e (e/f/g).f|e2E E2
F   |E2e  edc    |BAG FED|E2e  egf     |e2E E2:|
F   |GAG (B/c/d)G|FEF DEF|GFE  E2f     |efg B2
f   |gfe  dcB    |ABG FED|E2e (e/f/g).f|e2E E2:|

